X: 43
T: Paddy whack
C: anon.
O: Ireland
B: Francis O'Neill: "The Dance Music of Ireland" (1907) no. 43
R: Double jig
Z: Transcribed by Frank Nordberg - http://www.musicaviva.com
F: http://www.musicaviva.com/abc/tunes/ireland/oneill-1001/oneill-1001-004
3.abc
M: 6/8
L: 1/8
Q: 3/8=128
K: G
c|BGB cde|dBG A2G|GBd efg|fdd d2 e/f/|gbg gfd|c>de dBG|GAB cAd|BGG G2:| B
|GBd g>fg|
edc BAG|GBd e>fg|fdd d2 z|[1{e/f/}GBd g>fg|edc BAG|GAB cAd|BGG G2 :|[2 gb
g afd|c>de dBG|GAB cAd|BGG G2|]
W:
W:
W: From Musica Viva - http://www.musicaviva.com
W: the Internet center for free sheet music downloads.


